; generated by Slic3r 1.1.7 on 2014-10-12 at 11:47:35

; perimeters extrusion width = 0.50mm
; infill extrusion width = 0.70mm
; solid infill extrusion width = 0.70mm
; top infill extrusion width = 0.70mm

G21 ; set units to millimeters
M104 S200 ; set temperature
G28 ; home all axes
G1 Z5 F5000 ; lift nozzle
M109 S200 ; wait for temperature to be reached
G90 ; use absolute coordinates
G92 E0
M82 ; use absolute distances for extrusion
G1 F1800.000 E-1.00000
G92 E0
G1 Z0.250 F4200.000
G1 X15.966 Y16.176 F4200.000
G1 E1.00000 F1800.000
G1 X17.564 Y14.599 E1.01191 F540.000
G1 X18.554 Y13.797 E1.01867
G1 X22.586 Y11.142 E1.04428
G1 X23.713 Y10.548 E1.05104
G1 X26.459 Y9.432 E1.06676
G1 X27.681 Y9.070 E1.07352
G1 X32.422 Y8.159 E1.09914
G1 X33.691 Y8.043 E1.10590
G1 X36.654 Y8.062 E1.12162
G1 X37.921 Y8.195 E1.12838 F540.000
G1 X42.650 Y9.168 E1.15399
G1 X43.867 Y9.546 E1.16075
G1 X46.597 Y10.698 E1.17647
G1 X47.717 Y11.306 E1.18323
G1 X51.714 Y14.015 E1.20884
G1 X52.693 Y14.829 E1.21560
G1 X54.361 Y16.519 E1.22820
G1 X54.775 Y16.939 E1.23133
G1 X55.577 Y17.929 E1.23809
G1 X58.233 Y21.960 E1.26370
G1 X58.826 Y23.088 E1.27046
G1 X59.943 Y25.833 E1.28618
G1 X60.304 Y27.055 E1.29294
G1 X61.215 Y31.796 E1.31855
G1 X61.332 Y33.065 E1.32531
G1 X61.312 Y36.029 E1.34104
G1 X61.179 Y37.296 E1.34780
G1 X60.206 Y42.025 E1.37341
G1 X59.829 Y43.242 E1.38017
G1 X58.677 Y45.972 E1.39589
G1 X58.069 Y47.092 E1.40265
G1 X55.360 Y51.088 E1.42826
G1 X54.545 Y52.068 E1.43502
G1 X52.436 Y54.150 E1.45075
G1 X51.446 Y54.952 E1.45750
G1 X47.414 Y57.608 E1.48312
G1 X46.287 Y58.201 E1.48987
G1 X38.599 Y61.327 E1.53390
G1 X36.999 Y61.750 E1.54268
G1 X35.848 Y61.902 E1.54884
G1 X34.152 Y61.902 E1.55784
G1 X33.001 Y61.750 E1.56400
G1 X31.420 Y61.335 E1.57267
G1 X26.133 Y59.203 E1.60291
G1 X23.403 Y58.051 E1.61864
G1 X22.283 Y57.443 E1.62540
G1 X18.286 Y54.735 E1.65101
G1 X17.307 Y53.920 E1.65776
G1 X15.225 Y51.811 E1.67349
G1 X14.423 Y50.821 E1.68025
G1 X11.767 Y46.789 E1.70586
G1 X11.174 Y45.661 E1.71262
G1 X10.057 Y42.916 E1.72834
G1 X9.696 Y41.694 E1.73510
G1 X8.785 Y36.953 E1.76072
G1 X8.668 Y35.684 E1.76748
G1 X8.688 Y32.721 E1.78320
G1 X8.821 Y31.453 E1.78996
G1 X9.794 Y26.725 E1.81557
G1 X10.171 Y25.508 E1.82233
G1 X11.323 Y22.777 E1.83805
G1 X11.931 Y21.657 E1.84481
G1 X14.640 Y17.661 E1.87043
G1 X15.455 Y16.681 E1.87719
G1 X15.913 Y16.229 E1.88060
G1 F1800.000 E0.88060
G92 E0
G1 X48.589 Y45.934 F4200.000
G1 E1.00000 F1800.000
G1 X49.652 Y47.414 E1.00967 F630.000
G1 X47.847 Y49.196 E1.02312
G1 X46.381 Y48.114 E1.03279
G1 X43.131 Y50.254 E1.05343
G1 X43.546 Y52.028 E1.06310
G1 X41.197 Y52.984 E1.07655
G1 X40.257 Y51.423 E1.08622
G1 X39.111 Y51.643 E1.09241
G1 X39.051 Y52.097 E1.09484
G1 X38.632 Y53.108 E1.10065
G1 X37.965 Y53.977 E1.10645
G1 X37.097 Y54.643 E1.11226
G1 X36.085 Y55.062 E1.11807
G1 X35.000 Y55.205 E1.12388
G1 X33.915 Y55.062 E1.12969
G1 X32.903 Y54.643 E1.13549
G1 X32.035 Y53.977 E1.14130
G1 X31.368 Y53.108 E1.14711
G1 X30.949 Y52.097 E1.15292
G1 X30.888 Y51.634 E1.15540
G1 X29.521 Y51.353 E1.16280
G1 X28.560 Y52.901 E1.17247
G1 X26.223 Y51.915 E1.18592
G1 X26.662 Y50.147 E1.19559
G1 X23.441 Y47.963 E1.21623
G1 X21.961 Y49.026 E1.22590
G1 X20.179 Y47.221 E1.23936
G1 X21.261 Y45.755 E1.24902
G1 X19.120 Y42.506 E1.26967
G1 X17.346 Y42.921 E1.27933
G1 X16.391 Y40.572 E1.29279
G1 X17.811 Y39.716 E1.30159
G1 X17.645 Y39.215 E1.30438
G1 X17.245 Y37.492 E1.31377
G1 X17.109 Y35.792 E1.32282
G1 X15.419 Y35.515 E1.33190
G1 X15.436 Y32.978 E1.34535
G1 X17.169 Y32.717 E1.35465
G1 X17.511 Y30.273 E1.36775
G1 X17.942 Y28.846 E1.37565
G1 X16.474 Y27.935 E1.38482
G1 X17.460 Y25.598 E1.39827
G1 X19.228 Y26.037 E1.40794
G1 X21.411 Y22.815 E1.42859
G1 X20.348 Y21.335 E1.43825
G1 X22.153 Y19.554 E1.45171
G1 X23.619 Y20.636 E1.46137
G1 X26.869 Y18.495 E1.48202
G1 X26.454 Y16.721 E1.49168
G1 X28.803 Y15.766 E1.50514
G1 X29.743 Y17.326 E1.51481
G1 X33.565 Y16.592 E1.53545
G1 X33.860 Y14.794 E1.54512
G1 X36.396 Y14.811 E1.55857
G1 X36.668 Y16.612 E1.56824
G1 X40.479 Y17.397 E1.58888
G1 X41.440 Y15.848 E1.59855
G1 X43.777 Y16.834 E1.61200
G1 X43.338 Y18.603 E1.62167
G1 X46.559 Y20.786 E1.64231
G1 X48.039 Y19.723 E1.65198
G1 X49.821 Y21.528 E1.66544
G1 X48.739 Y22.994 E1.67510
G1 X50.880 Y26.244 E1.69575
G1 X52.654 Y25.828 E1.70541
G1 X53.609 Y28.178 E1.71887
G1 X52.126 Y29.071 E1.72805
G1 X52.489 Y30.273 E1.73471
G1 X52.821 Y32.646 E1.74743
G1 X52.838 Y32.949 E1.74903
G1 X54.581 Y33.235 E1.75840
G1 X54.564 Y35.771 E1.77186
G1 X52.872 Y36.026 E1.78093
G1 X52.755 Y37.492 E1.78873
G1 X52.355 Y39.215 E1.79812
G1 X52.115 Y39.939 E1.80217
G1 X53.526 Y40.815 E1.81098
G1 X52.540 Y43.151 E1.82443
G1 X50.772 Y42.713 E1.83410
G1 X48.631 Y45.872 E1.85435
G1 X37.582 Y50.320 F4200.000
G1 X37.673 Y51.011 E1.85805 F630.000
G1 X37.582 Y51.703 E1.86175
G1 X37.355 Y52.250 E1.86489
G1 X37.315 Y52.348 E1.86545
G1 X36.890 Y52.901 E1.86915
G1 X36.336 Y53.326 E1.87286
G1 X35.692 Y53.593 E1.87656
G1 X35.000 Y53.684 E1.88026
G1 X34.895 Y53.671 E1.88082
G1 X34.308 Y53.593 E1.88396
G1 X33.664 Y53.326 E1.88766
G1 X33.110 Y52.901 E1.89137
G1 X32.685 Y52.348 E1.89507
G1 X32.418 Y51.703 E1.89877
G1 X32.327 Y51.011 E1.90247
G1 X32.418 Y50.320 E1.90617
G1 X32.685 Y49.675 E1.90987
G1 X33.110 Y49.121 E1.91358
G1 X33.663 Y48.697 E1.91728
G1 X34.308 Y48.429 E1.92098
G1 X35.000 Y48.338 E1.92468
G1 X35.562 Y48.412 E1.92769
G1 X35.692 Y48.429 E1.92838 F630.000
G1 X36.337 Y48.697 E1.93209
G1 X36.890 Y49.121 E1.93579
G1 X37.315 Y49.675 E1.93949
G1 X37.553 Y50.250 E1.94279
G1 F1800.000 E0.94279
G92 E0
G1 X38.948 Y41.095 F4200.000
G1 E1.00000 F1800.000
G1 X41.001 Y41.095 E1.01089 F630.000
G1 X41.001 Y40.323 E1.01499
G1 X43.206 Y40.323 E1.02668
G1 X46.200 Y31.824 E1.07449
G1 X48.498 Y37.771 E1.10831
G1 X49.318 Y40.191 E1.12186
G1 X49.615 Y40.272 E1.12350
G1 X47.777 Y43.658 E1.14394
G1 X44.939 Y46.648 E1.16581
G1 X41.424 Y48.802 E1.18768
G1 X38.896 Y49.551 E1.20167
G1 X38.632 Y48.914 E1.20532
G1 X37.965 Y48.046 E1.21113
G1 X37.097 Y47.379 E1.21694
G1 X36.085 Y46.960 E1.22275
G1 X35.000 Y46.817 E1.22856
G1 X33.915 Y46.960 E1.23437
G1 X32.903 Y47.379 E1.24017
G1 X32.035 Y48.046 E1.24598
G1 X31.368 Y48.914 E1.25179
G1 X31.108 Y49.543 E1.25540
G1 X29.340 Y49.119 E1.26504
G1 X25.717 Y47.152 E1.28692
G1 X22.726 Y44.314 E1.30879
G1 X20.572 Y40.798 E1.33066
G1 X20.426 Y40.306 E1.33339
G1 X20.679 Y40.201 E1.33484
G1 X21.502 Y37.771 E1.34845
G1 X23.800 Y31.824 E1.38227
G1 X26.794 Y40.323 E1.43007
G1 X28.977 Y40.323 E1.44165
G1 X28.977 Y41.095 E1.44575
G1 X31.031 Y41.095 E1.45665
G1 X35.024 Y31.380 E1.51237
G1 X38.920 Y41.025 E1.56756
G1 X43.133 Y28.994 F4200.000
G1 X41.001 Y28.994 E1.57886 F630.000
G1 X41.001 Y27.886 E1.58474
G1 X39.029 Y27.886 E1.59520
G1 X39.029 Y34.483 E1.63020
G1 X38.545 Y34.578 E1.63282
G1 X35.810 Y27.886 E1.67117
G1 X34.168 Y27.886 E1.67988
G1 X31.433 Y34.578 E1.71824
G1 X30.949 Y34.483 E1.72086
G1 X30.949 Y27.886 E1.75585
G1 X28.977 Y27.886 E1.76632
G1 X28.977 Y28.994 E1.77219
G1 X26.867 Y28.994 E1.78338
G1 X26.867 Y34.610 E1.81318
G1 X26.365 Y34.693 E1.81588
G1 X24.445 Y29.032 E1.84760
G1 X23.073 Y29.032 E1.85487
G1 X20.741 Y35.490 E1.89130
G1 X20.118 Y37.164 E1.90078
G1 X19.630 Y37.082 E1.90340
G1 X19.576 Y34.981 E1.91455
G1 X19.676 Y32.816 E1.92605
G1 X19.939 Y30.748 E1.93711
G1 X20.492 Y28.875 E1.94747
G1 X20.211 Y28.798 E1.94902
G1 X22.223 Y25.092 E1.97139
G1 X25.061 Y22.101 E1.99327
G1 X26.301 Y21.341 E2.00098
G1 X28.576 Y19.947 E2.01514
G1 X32.529 Y18.776 E2.03701
G1 X36.651 Y18.668 E2.05888
G1 X40.660 Y19.630 E2.08076
G1 X44.283 Y21.598 E2.10263
G1 X47.274 Y24.436 E2.12450
G1 X49.428 Y27.951 E2.14637
G1 X49.687 Y28.826 E2.15121
G1 X49.508 Y28.875 E2.15220
G1 X50.061 Y30.748 E2.16256
G1 X50.324 Y32.816 E2.17362
G1 X50.424 Y34.981 E2.18512
G1 X50.370 Y37.082 E2.19627
G1 X49.882 Y37.164 E2.19889
G1 X49.259 Y35.490 E2.20837
G1 X46.927 Y29.032 E2.24480
G1 X45.555 Y29.032 E2.25207
G1 X43.635 Y34.693 E2.28379
G1 X43.133 Y34.610 E2.28649
G1 X43.133 Y29.069 E2.31589
G1 X42.790 Y30.007 F4200.000
G1 X42.119 Y29.337 E2.32092 F540.000
G1 X41.404 Y29.337 E2.32471
G1 X42.790 Y30.722 E2.33511
G1 X42.790 Y31.438 E2.33890
G1 X39.581 Y28.228 E2.36298
G1 X39.372 Y28.734 E2.36588
G1 X42.790 Y32.153 E2.39153
G1 X42.790 Y32.868 E2.39532
G1 X39.372 Y29.450 E2.42097
G1 X39.372 Y30.165 E2.42476
G1 X42.790 Y33.583 E2.45041
G1 X42.790 Y34.298 E2.45420
G1 X39.372 Y30.880 E2.47985
G1 F1800.000 E1.47985
G92 E0
G1 X37.263 Y32.347 F4200.000
G1 E1.00000 F1800.000
G1 X34.035 Y29.118 E1.02422 F540.000
G1 X34.242 Y28.611 E1.02713
G1 X36.769 Y31.138 E1.04609
G1 X36.275 Y29.928 F4200.000
G1 X34.575 Y28.228 E1.05884 F540.000
G1 X35.290 Y28.228 F4200.000
G1 X35.780 Y28.719 E1.06252 F540.000
G1 X35.751 Y32.265 F4200.000
G1 X43.094 Y39.608 E1.11762 F540.000
G1 X42.751 Y39.980 E1.12030
G1 X36.235 Y33.465 E1.16918
G1 X36.720 Y34.664 F4200.000
G1 X42.036 Y39.980 E1.20907 F540.000
G1 X41.321 Y39.980 E1.21286
G1 X37.205 Y35.864 E1.24374
G1 X37.689 Y37.064 F4200.000
G1 X40.659 Y40.034 E1.26602 F540.000
G1 X40.659 Y40.749 E1.26982
G1 X38.174 Y38.264 E1.28846
G1 X38.658 Y39.463 F4200.000
G1 X39.947 Y40.752 E1.29813 F540.000
G1 X39.232 Y40.752 E1.30192
G1 X39.143 Y40.663 E1.30259
G1 X43.281 Y39.079 F4200.000
G1 X39.033 Y34.832 E1.33446 F540.000
G1 X39.372 Y34.456 E1.33715
G1 X43.467 Y38.551 E1.36787
G1 X43.653 Y38.022 E1.37085
G1 X39.372 Y33.740 E1.40297
G1 X39.372 Y33.025 E1.40676
G1 X43.839 Y37.493 E1.44028
G1 X44.026 Y36.964 E1.44326
G1 X39.372 Y32.310 E1.47817
G1 X39.372 Y31.595 E1.48197
G1 X44.212 Y36.435 E1.51828
G1 X44.398 Y35.906 E1.52126
G1 X43.512 Y35.020 E1.52790
G1 X43.972 Y34.765 E1.53070
G1 X44.585 Y35.378 E1.53529
G1 X44.771 Y34.849 E1.53827
G1 X44.153 Y34.231 E1.54290
G1 X44.334 Y33.697 E1.54589
G1 X44.957 Y34.320 E1.55057
G1 X45.144 Y33.791 E1.55354
G1 X44.516 Y33.163 E1.55826
G1 X44.697 Y32.629 E1.56125
G1 X45.330 Y33.262 E1.56600
G1 X45.516 Y32.733 E1.56897
G1 X44.878 Y32.095 E1.57377
G1 X45.059 Y31.561 E1.57676
G1 X45.703 Y32.205 E1.58159
G1 X45.889 Y31.676 E1.58456
G1 X45.240 Y31.027 E1.58943
G1 X45.421 Y30.493 E1.59242
G1 X46.075 Y31.147 E1.59733
G1 X46.821 Y29.747 F4200.000
G1 X46.448 Y29.374 E1.60013 F540.000
G1 X47.630 Y31.986 F4200.000
G1 X45.602 Y29.959 E1.61534 F540.000
G1 X45.783 Y29.425 E1.61833
G1 X47.225 Y30.867 E1.62915
G1 X46.450 Y31.522 E1.63453
G1 X48.034 Y33.105 E1.64641
G1 X47.351 Y33.853 E1.65178
G1 X48.842 Y35.344 E1.66297
G1 X48.251 Y36.184 E1.66842
G1 X51.817 Y39.749 E1.69517
G1 X51.995 Y39.212 E1.69817
G1 X50.235 Y37.452 E1.71137
G1 X50.709 Y37.211 E1.71419
G1 X52.137 Y38.639 E1.72491
G1 X52.272 Y38.059 E1.72807
G1 X50.727 Y36.514 E1.73966
G1 X50.745 Y35.817 E1.74336
G1 X52.407 Y37.478 E1.75582
G1 X52.465 Y36.822 E1.75932
G1 X50.763 Y35.119 E1.77209
G1 X50.739 Y34.380 E1.77602
G1 X52.518 Y36.159 E1.78936
G1 X52.769 Y35.695 E1.79216
G1 X50.704 Y33.631 E1.80765
G1 X50.670 Y32.881 E1.81163
G1 X53.390 Y35.601 E1.83204
G1 X54.012 Y35.508 E1.83538
G1 X50.574 Y32.070 E1.86117
G1 X50.470 Y31.251 E1.86555
G1 X54.226 Y35.007 E1.89374
G1 X54.231 Y34.297 E1.89751
G1 X53.307 Y33.373 E1.90444
G1 X54.163 Y33.513 E1.90904
G1 X54.236 Y33.586 E1.90959
G1 X52.458 Y32.524 F4200.000
G1 X50.307 Y30.373 E1.92573 F540.000
G1 X50.008 Y29.358 E1.93134
G1 X52.342 Y31.692 E1.94885
G1 X52.225 Y30.861 E1.95331
G1 X49.982 Y28.618 E1.97013
G1 X49.511 Y27.431 F4200.000
G1 X52.035 Y29.955 E1.98907 F540.000
G1 X52.607 Y28.382 F4200.000
G1 X41.165 Y16.940 E2.07492 F540.000
G1 X41.439 Y16.499 E2.07767
G1 X43.096 Y18.156 E2.09010
G1 X43.238 Y17.583 E2.09323
G1 X42.193 Y16.538 E2.10107
G1 X42.106 Y20.026 F4200.000
G1 X39.657 Y17.577 E2.11944 F540.000
G1 X38.756 Y17.392 E2.12432
G1 X40.638 Y19.273 E2.13843
G1 X39.696 Y19.047 E2.14357
G1 X37.856 Y17.207 E2.15738
G1 X36.956 Y17.021 E2.16225
G1 X38.755 Y18.821 E2.17576
G1 X37.814 Y18.595 E2.18089
G1 X34.359 Y15.140 E2.20681
G1 X34.079 Y15.575 E2.20956
G1 X36.873 Y18.369 E2.23052
G1 X36.128 Y18.339 E2.23448
G1 X33.978 Y16.189 E2.25061
G1 X33.877 Y16.804 E2.25391
G1 X35.431 Y18.357 E2.26557
G1 X34.734 Y18.376 E2.26927
G1 X33.342 Y16.984 E2.27971
G1 X32.742 Y17.099 E2.28295
G1 X34.037 Y18.394 E2.29267
G1 X33.340 Y18.412 E2.29637
G1 X32.142 Y17.214 E2.30535
G1 X31.543 Y17.329 E2.30859
G1 X32.643 Y18.430 E2.31685
G1 X32.057 Y18.559 E2.32004
G1 X30.943 Y17.445 E2.32840
G1 X30.343 Y17.560 E2.33164
G1 X31.505 Y18.722 E2.34036
G1 X30.953 Y18.886 E2.34341
G1 X28.376 Y16.309 E2.36275
G1 X27.868 Y16.515 E2.36566
G1 X30.402 Y19.049 E2.38467
G1 X29.850 Y19.212 E2.38772
G1 X27.360 Y16.722 E2.40640
G1 X26.855 Y16.933 E2.40930
G1 X29.298 Y19.376 E2.42763
G1 X28.746 Y19.539 E2.43068
G1 X27.074 Y17.867 E2.44323
G1 X27.187 Y18.695 E2.44767
G1 X28.242 Y19.750 E2.45559
G1 X27.799 Y20.022 E2.45834
G1 X26.756 Y18.979 E2.46617
G1 X26.325 Y19.263 E2.46890
G1 X27.355 Y20.294 E2.47663
G1 X26.912 Y20.565 E2.47939
G1 X25.894 Y19.547 E2.48703
G1 X25.463 Y19.831 E2.48977
G1 X26.468 Y20.837 E2.49731
G1 X26.025 Y21.109 E2.50007
G1 X25.032 Y20.115 E2.50752
G1 X24.601 Y20.399 E2.51026
G1 X25.582 Y21.380 E2.51762
G1 X25.138 Y21.652 E2.52038
G1 X24.169 Y20.683 E2.52765
G1 X23.738 Y20.967 E2.53039
G1 X24.727 Y21.956 E2.53780
G1 X24.378 Y22.323 E2.54049
G1 X22.127 Y20.072 E2.55738
G1 X21.770 Y20.429 E2.56006
G1 X24.030 Y22.690 E2.57702
G1 X23.682 Y23.057 E2.57970
G1 X21.412 Y20.787 E2.59673
G1 X21.055 Y21.144 E2.59942
G1 X23.334 Y23.424 E2.61652
G1 X22.986 Y23.791 E2.61920
G1 X21.381 Y22.186 E2.63124
G1 X21.611 Y23.131 F4200.000
G1 X22.637 Y24.158 E2.63894 F540.000
G1 X22.289 Y24.524 E2.64163
G1 X21.322 Y23.557 E2.64888
G1 X21.033 Y23.984 E2.65162
G1 X21.942 Y24.892 E2.65843
G1 X21.690 Y25.356 E2.66123
G1 X20.744 Y24.410 E2.66833
G1 X20.455 Y24.836 E2.67106
G1 X21.438 Y25.819 E2.67843
G1 X21.187 Y26.283 E2.68123
G1 X20.167 Y25.262 E2.68889
G1 X19.878 Y25.689 E2.69162
G1 X20.935 Y26.746 E2.69955
G1 X20.683 Y27.210 E2.70235
G1 X19.589 Y26.115 E2.71056
G1 X19.122 Y26.363 E2.71337
G1 X20.432 Y27.673 E2.72320
G1 X20.180 Y28.137 E2.72600
G1 X18.171 Y26.127 E2.74107
G1 X17.563 Y26.234 E2.74435
G1 X19.928 Y28.600 E2.76210
G1 X19.988 Y29.374 E2.76622
G1 X17.351 Y26.737 E2.78600
G1 X17.138 Y27.240 E2.78890
G1 X19.825 Y29.926 E2.80905
G1 X19.662 Y30.479 E2.81210
G1 X18.237 Y29.054 E2.82279
G1 X18.071 Y29.603 E2.82584
G1 X19.551 Y31.084 E2.83695
G1 X19.471 Y31.718 E2.84034
G1 X17.905 Y30.153 E2.85208
G1 X17.790 Y30.752 E2.85532
G1 X19.390 Y32.352 E2.86733
G1 X19.325 Y33.002 E2.87079
G1 X17.702 Y31.380 E2.88297
G1 X17.614 Y32.007 E2.88633
G1 X19.293 Y33.686 E2.89892
G1 X19.262 Y34.370 E2.90256
G1 X17.526 Y32.634 E2.91558
G1 X17.231 Y33.054 E2.91830
G1 X19.236 Y35.059 E2.93334
G1 X19.254 Y35.793 E2.93723
G1 X16.610 Y33.148 E2.95708
G1 X15.988 Y33.242 E2.96041
G1 X19.273 Y36.527 E2.98506
G1 X19.292 Y37.260 E2.98895
G1 X15.774 Y33.742 E3.01535
G1 X15.769 Y34.452 E3.01912
G1 X16.693 Y35.377 E3.02605
G1 X15.837 Y35.236 E3.03065
G1 X15.764 Y35.163 E3.03120
G1 X17.483 Y36.166 F4200.000
G1 X20.621 Y39.305 E3.05475 F540.000
G1 X20.440 Y39.839 E3.05774
G1 X17.545 Y36.943 E3.07946
G1 X17.663 Y37.777 E3.08393
G1 X20.017 Y40.131 E3.10159
G1 X20.489 Y41.318 F4200.000
G1 X17.879 Y38.708 E3.12117 F540.000
G1 X18.173 Y39.717 E3.12675
G1 X21.621 Y43.165 E3.15262
G1 X20.910 Y44.599 F4200.000
G1 X24.742 Y48.432 E3.18137 F540.000
G1 X23.264 Y47.669 F4200.000
G1 X21.544 Y45.949 E3.19428 F540.000
G1 X21.240 Y46.360 E3.19699
G1 X22.848 Y47.968 E3.20905
G1 X22.431 Y48.266 E3.21177
G1 X20.936 Y46.772 E3.22299
G1 X20.633 Y47.183 E3.22570
G1 X22.015 Y48.565 E3.23607
G1 F1800.000 E2.23607
G92 E0
G1 X26.330 Y47.874 F4200.000
G1 E1.00000 F1800.000
G1 X29.443 Y50.987 E1.02336 F540.000
G1 X29.108 Y51.368 E1.02604
G1 X17.839 Y40.099 E1.11059
G1 X17.393 Y40.368 E1.11335
G1 X28.835 Y51.809 E1.19920
G1 X28.561 Y52.250 E1.20195
G1 X26.904 Y50.594 E1.21438
G1 X26.762 Y51.167 E1.21751
G1 X27.807 Y52.211 E1.22535
G1 X30.343 Y51.172 F4200.000
G1 X27.894 Y48.724 E1.24372 F540.000
G1 X29.362 Y49.476 F4200.000
G1 X32.371 Y52.485 E1.26630 F540.000
G1 X31.357 Y52.186 E1.27191
G1 X33.826 Y54.655 E1.29044
G1 X34.707 Y54.821 E1.29520
